lib/preview/nrk-logo-preview-nrk-klassisk-title-below-on-light.svg

<svg width="61" height="31" viewBox="0 0 61 31" fill="none" xmlns="http://www.w3.org/2000/svg">
<path d="M0 12.9966V0.997672H3.93719V12.9966H0ZM9.29381 2.90736L11.5581 12.9966H7.24917L4.54549 0.997672H6.96218C7.51635 0.99048 8.05406 1.18583 8.4745 1.54697C8.89562 1.89296 9.18495 2.37328 9.29381 2.90736ZM12.1495 12.9966V0.997672H16.0867V12.9966H12.1495ZM19.0605 5.56068C18.6362 5.56482 18.2188 5.45381 17.8525 5.23955C17.4912 5.0307 17.1911 4.73054 16.9823 4.36918C16.7678 4.00291 16.6568 3.58534 16.661 3.1609C16.6561 2.73904 16.7672 2.32396 16.9823 1.96101C17.1933 1.60357 17.4931 1.30668 17.8525 1.0991C18.2189 0.885084 18.6362 0.774097 19.0605 0.777966C19.4822 0.773424 19.8971 0.884511 20.2602 1.0991C20.616 1.30849 20.9127 1.60514 21.122 1.96101C21.3368 2.32406 21.4479 2.73908 21.4433 3.1609C21.4473 3.58531 21.3363 4.00281 21.122 4.36918C20.9149 4.72896 20.6179 5.02886 20.2602 5.23955C19.8971 5.45456 19.4819 5.56567 19.0599 5.56068H19.0605ZM22.0516 12.9966V0.997672H25.9892V12.9966H22.0516ZM30.9737 7.55482C30.9848 7.56646 31.0693 7.70447 31.2272 7.96885C31.3851 8.23324 31.5907 8.57127 31.8439 8.98287C32.0974 9.39429 32.3649 9.83084 32.6463 10.2926C32.9278 10.7543 33.1926 11.1909 33.4408 11.6024C33.6881 12.0138 33.9697 12.4785 34.2857 12.9966H29.9598C29.6893 12.5572 29.4441 12.16 29.2245 11.8051C29.0048 11.4503 28.7713 11.0672 28.5238 10.6559C28.2758 10.2451 28.0306 9.84512 27.7882 9.45605C27.5458 9.06698 27.3375 8.7262 27.1633 8.43364C26.9883 8.1409 26.8671 7.94371 26.7997 7.84212C26.6325 7.59003 26.5336 7.29888 26.5127 6.99713C26.5294 6.70752 26.6226 6.42756 26.7828 6.18569C26.8504 6.07303 26.9743 5.87301 27.1545 5.58571C27.3348 5.29842 27.546 4.95764 27.7882 4.56331C28.0304 4.16898 28.2756 3.76619 28.5238 3.35496C28.772 2.94373 29.0056 2.55782 29.2245 2.19729C29.4445 1.83713 29.6897 1.43717 29.9598 0.997397H34.2857L30.9396 6.45608C30.8361 6.61815 30.7777 6.80493 30.7706 6.99713C30.7818 7.1989 30.8522 7.3929 30.9731 7.55482H30.9737Z" fill="#0A2343"/>
<path d="M9.09939 18.1495H6.98913L2.40289 23.4336H1.77263V18.1495H0V30.1357H1.77263V24.7166H1.83226L6.82063 30.1526L9.23478 30.1355L3.51174 24.193L9.09939 18.1495Z" fill="#6B046A"/>
<path d="M13.2439 28.8946C13.1851 28.901 13.1259 28.9039 13.0667 28.9033C12.9396 28.907 12.8131 28.8839 12.6955 28.8355C12.5932 28.79 12.5056 28.7169 12.4423 28.6245C12.369 28.5152 12.3201 28.3914 12.2988 28.2615C12.2684 28.0889 12.2543 27.9137 12.2567 27.7384V17.3898L10.5347 17.643V28.4982C10.5275 28.7827 10.5733 29.066 10.6697 29.3338C10.7507 29.5514 10.8841 29.7456 11.058 29.8994C11.2313 30.0479 11.4363 30.1547 11.6573 30.2117C11.9026 30.2753 12.1551 30.3065 12.4085 30.3045C12.5439 30.3045 12.6731 30.2989 12.7969 30.2874C12.9207 30.2758 13.0417 30.2592 13.1598 30.237C13.278 30.2148 13.3765 30.192 13.4553 30.1695L13.6241 28.8355C13.5565 28.8471 13.489 28.8584 13.4215 28.8693C13.354 28.8801 13.2948 28.8886 13.2439 28.8946Z" fill="#6B046A"/>
<path d="M22.6557 29.0722C22.5323 29.0835 22.408 29.0648 22.2934 29.0177C22.1787 28.9707 22.0771 28.8966 21.9973 28.8018C21.8407 28.5314 21.7756 28.2177 21.8116 27.9073L21.8454 24.4296C21.8491 24.0649 21.8037 23.7014 21.7103 23.3489C21.6282 23.0399 21.491 22.7483 21.3052 22.4882C21.1174 22.2337 20.8788 22.021 20.6046 21.8635C20.2861 21.6824 19.9415 21.5515 19.5832 21.4752C19.145 21.3806 18.6977 21.3353 18.2495 21.3402C17.894 21.34 17.5389 21.3626 17.1862 21.4077C16.8529 21.4496 16.5227 21.5144 16.1983 21.6016C15.8975 21.6834 15.6016 21.7821 15.312 21.8973L15.1094 23.3323C15.3908 23.2306 15.6581 23.1462 15.9114 23.079C16.1646 23.0119 16.4093 22.9556 16.6457 22.9102C16.8772 22.8658 17.1112 22.8348 17.3463 22.8173C17.5768 22.8005 17.8049 22.792 18.0303 22.792C18.3745 22.7847 18.718 22.8244 19.0514 22.9102C19.2947 22.9711 19.5185 23.0931 19.7014 23.2647C19.8642 23.4316 19.9806 23.6381 20.039 23.8637C20.1111 24.1422 20.1453 24.429 20.1406 24.7166L20.1386 25.1403L18.1651 25.2737C17.4902 25.2925 16.8252 25.4416 16.2067 25.7126C15.7439 25.9151 15.3444 26.2388 15.0504 26.6496C14.8007 27.015 14.6682 27.4478 14.6705 27.8904C14.6673 28.3056 14.769 28.7148 14.9659 29.0803C15.1724 29.456 15.4831 29.7639 15.8607 29.9669C16.3212 30.2065 16.8359 30.3228 17.3547 30.3046C17.8409 30.3158 18.3248 30.2355 18.7813 30.0679C19.176 29.9134 19.5371 29.6841 19.8449 29.3926C19.9616 29.2805 20.0724 29.1624 20.1769 29.0387C20.2097 29.2135 20.2715 29.3817 20.3597 29.5361C20.5102 29.7946 20.7416 29.9963 21.0182 30.1101C21.3239 30.2328 21.651 30.293 21.9804 30.2871C22.0817 30.2871 22.1802 30.2846 22.2759 30.2787C22.3698 30.2732 22.463 30.2592 22.5544 30.2367C22.6444 30.2139 22.7258 30.1943 22.7992 30.1777C22.8653 30.1626 22.9301 30.1429 22.9934 30.1186L23.179 28.9872C23.0859 29.0193 22.9897 29.042 22.892 29.055C22.8137 29.0656 22.7348 29.0713 22.6557 29.0722ZM19.8449 28.3125C19.6618 28.4571 19.4637 28.5815 19.254 28.6836C19.0451 28.7854 18.8237 28.8592 18.5955 28.9033C18.3592 28.9489 18.1191 28.9715 17.8784 28.9709C17.6032 28.9788 17.3295 28.927 17.0762 28.8189C16.8702 28.7293 16.6965 28.5791 16.5782 28.3882C16.4612 28.1858 16.4028 27.9549 16.4093 27.7213C16.3931 27.44 16.4702 27.1611 16.6288 26.9282C16.8125 26.7136 17.0616 26.5653 17.3378 26.5061C17.7691 26.4044 18.2118 26.359 18.6547 26.371H20.133L20.1253 28.0466C20.0397 28.1431 19.9459 28.2321 19.8449 28.3125Z" fill="#6B046A"/>
<path d="M30.1173 26.2529C29.9445 26.0695 29.7454 25.913 29.5264 25.7883C29.2998 25.6587 29.0626 25.5486 28.8174 25.4591C28.6373 25.4028 28.4601 25.3437 28.2856 25.2818C28.1112 25.2199 27.9367 25.1637 27.7623 25.113C27.5874 25.0624 27.4186 25.0089 27.2558 24.9526C27.1027 24.9006 26.9533 24.8385 26.8085 24.7667C26.6697 24.6929 26.537 24.6082 26.4117 24.5134C26.2959 24.4263 26.1984 24.3172 26.1247 24.1924C26.0502 24.0644 26.0122 23.9184 26.0147 23.7703C26.0103 23.6076 26.0514 23.4469 26.1334 23.3064C26.2215 23.1681 26.3436 23.0548 26.4879 22.9771C26.6646 22.8801 26.8554 22.8117 27.0535 22.7743C27.301 22.7269 27.5527 22.7044 27.8047 22.707C27.9282 22.707 28.0636 22.713 28.2097 22.7239C28.3557 22.7349 28.5163 22.7549 28.6911 22.783C28.8658 22.8112 29.0394 22.8477 29.2144 22.8925C29.3894 22.9372 29.5661 22.9884 29.7462 23.0444C29.9129 23.096 30.0763 23.158 30.2352 23.2301L30.3539 21.8629C30.1399 21.7729 29.9289 21.694 29.7208 21.6263C29.5129 21.5592 29.3016 21.5028 29.0878 21.4575C28.8789 21.4132 28.6675 21.3822 28.4547 21.3646C28.2459 21.3478 28.0411 21.3393 27.8382 21.3393C27.3719 21.3346 26.9068 21.3885 26.4539 21.4997C26.0667 21.5939 25.6985 21.7538 25.3653 21.9724C25.063 22.1721 24.816 22.4451 24.6475 22.7658C24.4713 23.1193 24.3844 23.5106 24.3943 23.9054C24.3892 24.1898 24.4349 24.4728 24.5294 24.7411C24.6097 24.966 24.7298 25.1747 24.8839 25.3573C25.034 25.5295 25.2073 25.68 25.3988 25.8046C25.5982 25.9355 25.8103 26.0458 26.0319 26.1338C26.1553 26.1788 26.2848 26.2238 26.4204 26.2686C26.5555 26.3139 26.6875 26.3561 26.8172 26.3952C26.9469 26.4343 27.0726 26.4743 27.197 26.5134C27.3214 26.5525 27.4415 26.5925 27.5597 26.6316C27.6779 26.6707 27.7932 26.7078 27.9058 26.7416C28.0569 26.795 28.2037 26.8598 28.345 26.9355C28.4688 27.0012 28.5849 27.0805 28.6911 27.1721C28.7844 27.2539 28.8592 27.3546 28.9105 27.4675C28.9619 27.5844 28.9877 27.711 28.9862 27.8386C28.9923 27.9635 28.9704 28.0882 28.9222 28.2035C28.874 28.3189 28.8008 28.422 28.7077 28.5055C28.4987 28.6802 28.249 28.7993 27.9817 28.8518C27.6686 28.9208 27.3488 28.9547 27.0282 28.9528C26.8277 28.9516 26.6274 28.9376 26.4286 28.9109C26.2093 28.8828 25.9787 28.8434 25.7367 28.7928C25.4947 28.7421 25.2471 28.6802 24.9939 28.607C24.7404 28.5339 24.4844 28.4523 24.2257 28.3623L24.293 29.7972C24.5854 29.8987 24.8527 29.9803 25.0949 30.042C25.3371 30.1037 25.5679 30.1573 25.7873 30.2027C25.9987 30.2465 26.2131 30.2748 26.4286 30.2871C26.6368 30.2987 26.8478 30.3044 27.0617 30.3042C27.5326 30.3067 28.0025 30.2585 28.4631 30.1605C28.8686 30.0783 29.257 29.9269 29.6111 29.7131C29.9304 29.5182 30.1947 29.2452 30.3793 28.9199C30.5724 28.5626 30.6683 28.1608 30.6573 27.7548C30.6644 27.4587 30.6158 27.1638 30.5141 26.8857C30.4233 26.6514 30.2886 26.4366 30.1173 26.2529Z" fill="#6B046A"/>
<path d="M38.0347 26.2529C37.8619 26.0696 37.6627 25.9131 37.4438 25.7883C37.2172 25.6587 36.9799 25.5485 36.7345 25.4591C36.5544 25.4028 36.3772 25.3437 36.2028 25.2818C36.0283 25.2199 35.8538 25.1637 35.6794 25.113C35.5049 25.0624 35.3361 25.0089 35.1729 24.9526C35.0199 24.9006 34.8704 24.8385 34.7256 24.7667C34.5868 24.6929 34.4541 24.6082 34.3288 24.5134C34.2131 24.4263 34.1157 24.3172 34.0422 24.1924C33.9676 24.0644 33.9295 23.9185 33.9321 23.7704C33.9276 23.6077 33.9686 23.447 34.0505 23.3064C34.1385 23.168 34.2606 23.0546 34.4051 22.9772C34.5817 22.8801 34.7726 22.8117 34.9706 22.7743C35.2181 22.7269 35.4697 22.7044 35.7216 22.707C35.8454 22.707 35.9805 22.713 36.1271 22.7239C36.2737 22.7349 36.4335 22.7549 36.6082 22.783C36.7829 22.8112 36.9568 22.8477 37.1313 22.8925C37.3057 22.9372 37.483 22.9884 37.6633 23.0444C37.8302 23.096 37.9936 23.158 38.1526 23.2301L38.271 21.8629C38.057 21.7729 37.846 21.694 37.638 21.6263C37.43 21.5591 37.2187 21.5027 37.0049 21.4575C36.796 21.4132 36.5846 21.3822 36.3718 21.3646C36.1632 21.3478 35.9578 21.3393 35.7556 21.3393C35.2893 21.3346 34.8242 21.3884 34.3713 21.4997C33.984 21.5938 33.6156 21.7537 33.2824 21.9724C32.9801 22.1721 32.7334 22.4451 32.565 22.7659C32.3885 23.1192 32.3015 23.5105 32.3117 23.9054C32.3066 24.1898 32.3524 24.4728 32.447 24.7411C32.5271 24.9661 32.6472 25.1749 32.8016 25.3573C32.9516 25.5296 33.1249 25.6801 33.3165 25.8046C33.5158 25.9355 33.7279 26.0458 33.9496 26.1338C34.073 26.1788 34.2024 26.2238 34.3378 26.2686C34.4729 26.3139 34.6049 26.3561 34.7346 26.3952C34.8643 26.4343 34.9903 26.4743 35.1141 26.5134C35.2379 26.5525 35.3589 26.5925 35.4771 26.6316C35.5953 26.6707 35.7106 26.7078 35.8234 26.7416C35.9744 26.795 36.121 26.8598 36.2621 26.9355C36.3861 27.0011 36.5023 27.0804 36.6085 27.1721C36.7018 27.2538 36.7766 27.3545 36.8277 27.4675C36.8794 27.5843 36.9054 27.7109 36.9039 27.8386C36.91 27.9635 36.8881 28.0882 36.8398 28.2035C36.7916 28.3189 36.7182 28.4221 36.6251 28.5055C36.4162 28.6802 36.1664 28.7994 35.8991 28.8518C35.586 28.9209 35.2662 28.9548 34.9456 28.9528C34.7452 28.9516 34.5449 28.9376 34.3463 28.9109C34.1268 28.8828 33.8961 28.8434 33.6541 28.7928C33.4121 28.7421 33.1645 28.6802 32.911 28.607C32.658 28.5339 32.4021 28.4523 32.1432 28.3623L32.2107 29.7972C32.503 29.8987 32.7702 29.9803 33.0126 30.042C33.2549 30.1037 33.4856 30.1573 33.7047 30.2027C33.9162 30.2465 34.1306 30.2748 34.3463 30.2871C34.5543 30.2987 34.7653 30.3044 34.9793 30.3043C35.4501 30.3067 35.9198 30.2585 36.3803 30.1605C36.7858 30.0783 37.1741 29.927 37.5283 29.7131C37.8476 29.5183 38.1121 29.2453 38.2967 28.9199C38.4899 28.5627 38.5859 28.1609 38.5749 27.7548C38.582 27.4587 38.5334 27.1638 38.4314 26.8857C38.3408 26.6514 38.2061 26.4366 38.0347 26.2529Z" fill="#6B046A"/>
<path d="M42.0949 17.8202C41.9197 17.7132 41.7179 17.6576 41.5127 17.6598C41.3048 17.6583 41.1004 17.7137 40.9219 17.8202C40.7458 17.9232 40.598 18.0682 40.4916 18.2423C40.3843 18.4173 40.3286 18.6191 40.331 18.8244C40.3293 19.0324 40.3849 19.2368 40.4916 19.4153C40.5948 19.5918 40.7434 19.7376 40.9219 19.8374C41.1022 19.9386 41.3059 19.991 41.5127 19.9893C41.7168 19.9916 41.9179 19.9391 42.0949 19.8374C42.2685 19.7368 42.4115 19.5909 42.5087 19.4153C42.61 19.2349 42.6624 19.0313 42.6607 18.8244C42.663 18.6203 42.6106 18.4192 42.5087 18.2423C42.4084 18.0691 42.266 17.924 42.0949 17.8202Z" fill="#6B046A"/>
<path d="M40.6177 30.1355H42.3397V21.3568L40.6177 21.61V30.1355Z" fill="#6B046A"/>
<path d="M50.308 26.2529C50.1352 26.0695 49.9361 25.913 49.7171 25.7883C49.4904 25.6587 49.2531 25.5486 49.0078 25.4591C48.8279 25.4028 48.6507 25.3437 48.4762 25.2818C48.3018 25.2199 48.1273 25.1637 47.9527 25.113C47.7782 25.0624 47.6094 25.0089 47.4462 24.9526C47.2932 24.9006 47.1438 24.8385 46.9991 24.7667C46.8602 24.693 46.7275 24.6083 46.6021 24.5134C46.4864 24.4263 46.389 24.3172 46.3154 24.1924C46.2408 24.0644 46.2028 23.9185 46.2054 23.7704C46.2009 23.6077 46.2419 23.447 46.3238 23.3064C46.4118 23.168 46.5339 23.0546 46.6783 22.9772C46.855 22.8801 47.0459 22.8117 47.2439 22.7743C47.4914 22.7269 47.7431 22.7044 47.9951 22.707C48.1186 22.707 48.254 22.713 48.4003 22.7239C48.5466 22.7349 48.7067 22.7549 48.8815 22.783C49.0562 22.8112 49.2301 22.8477 49.4045 22.8925C49.5789 22.9372 49.7562 22.9884 49.9366 23.0444C50.1034 23.096 50.2669 23.158 50.4259 23.2301L50.5443 21.8629C50.3303 21.7729 50.1193 21.694 49.9113 21.6263C49.7033 21.5591 49.492 21.5027 49.2782 21.4575C49.0693 21.4132 48.8579 21.3822 48.6451 21.3646C48.4367 21.3478 48.2313 21.3393 48.0289 21.3393C47.5626 21.3346 47.0974 21.3884 46.6445 21.4997C46.2572 21.5938 45.8889 21.7537 45.5557 21.9724C45.2534 22.1722 45.0066 22.4451 44.8382 22.7659C44.6617 23.1192 44.5748 23.5106 44.585 23.9054C44.5798 24.1898 44.6256 24.4728 44.7203 24.7411C44.8004 24.9661 44.9205 25.1749 45.0748 25.3573C45.2249 25.5295 45.3982 25.6801 45.5898 25.8046C45.7891 25.9355 46.0012 26.0458 46.2228 26.1338C46.3463 26.1788 46.4757 26.2238 46.6111 26.2686C46.7465 26.3134 46.8787 26.3556 47.0078 26.3952C47.1368 26.435 47.2634 26.4744 47.3874 26.5134C47.5114 26.5524 47.6324 26.5918 47.7504 26.6316C47.8685 26.6711 47.984 26.7078 48.0967 26.7416C48.2477 26.795 48.3945 26.8598 48.5357 26.9355C48.6595 27.0011 48.7756 27.0805 48.8817 27.1721C48.9751 27.2537 49.0499 27.3545 49.1009 27.4675C49.1527 27.5843 49.1787 27.7109 49.1772 27.8386C49.1832 27.9635 49.1613 28.0882 49.1131 28.2035C49.0649 28.3189 48.9916 28.422 48.8986 28.5055C48.6895 28.6802 48.4398 28.7993 48.1724 28.8518C47.8593 28.9209 47.5394 28.9548 47.2188 28.9528C47.0184 28.9516 46.8182 28.9376 46.6195 28.9109C46.4001 28.8828 46.1694 28.8434 45.9274 28.7928C45.6854 28.7421 45.4377 28.6802 45.1843 28.607C44.9314 28.5339 44.6755 28.4523 44.4164 28.3623L44.4839 29.7972C44.7764 29.8987 45.0437 29.9803 45.2859 30.042C45.528 30.1037 45.7587 30.1573 45.978 30.2027C46.1895 30.2465 46.4039 30.2748 46.6195 30.2871C46.8276 30.2987 47.0386 30.3044 47.2526 30.3043C47.7234 30.3067 48.1931 30.2585 48.6535 30.1605C49.0591 30.0783 49.4475 29.9269 49.8018 29.7131C50.121 29.5182 50.3853 29.2452 50.57 28.9199C50.7632 28.5627 50.8591 28.1609 50.8482 27.7548C50.8553 27.4587 50.8066 27.1638 50.7047 26.8857C50.6141 26.6514 50.4793 26.4366 50.308 26.2529Z" fill="#6B046A"/>
<path d="M58.092 30.1355H60.3205L56.2254 25.521L60.2361 21.5256H58.1258L55.237 24.6995H54.6143V17.3895L52.8923 17.6427V30.1355H54.6143V25.9994H54.6424L58.092 30.1355Z" fill="#6B046A"/>
</svg>

<svg xmlns="http://www.w3.org/2000/svg" viewBox="0 0 61 31"><path fill="#0A2343" d="M0 12.997v-12h3.937v12H0Zm9.294-10.09 2.264 10.09H7.25l-2.704-12h2.417a2.276 2.276 0 0 1 1.513.55c.42.346.71.826.819 1.36Zm2.855 10.09v-12h3.938v12h-3.938Zm6.912-7.436a2.382 2.382 0 0 1-2.4-2.4 2.301 2.301 0 0 1 .321-1.2 2.41 2.41 0 0 1 3.278-.862c.356.21.653.506.862.862.215.363.326.778.321 1.2a2.35 2.35 0 0 1-.321 1.208 2.4 2.4 0 0 1-.862.87 2.302 2.302 0 0 1-1.2.322Zm2.99 7.436v-12h3.938v12h-3.937Zm8.923-5.442c.01.011.095.15.253.414s.364.602.617 1.014a313.388 313.388 0 0 1 1.597 2.62c.247.41.529.876.845 1.394H29.96c-.27-.44-.516-.837-.736-1.192-.22-.355-.453-.738-.7-1.15-.248-.41-.493-.81-.736-1.199-.242-.389-.45-.73-.625-1.022-.175-.293-.296-.49-.363-.592a1.747 1.747 0 0 1-.287-.845c.016-.29.11-.57.27-.811.067-.113.191-.313.371-.6a182.106 182.106 0 0 0 1.37-2.23l.7-1.159.736-1.2h4.326l-3.346 5.46a1.08 1.08 0 0 0-.17.54c.012.202.082.396.203.558Z"/><path fill="#6B046A" d="M9.1 18.15H6.99l-4.587 5.284h-.63v-5.285H0v11.987h1.773v-5.42h.06l4.988 5.437 2.414-.017-5.723-5.943 5.587-6.044ZM13.244 28.895c-.059.006-.118.009-.177.008a.906.906 0 0 1-.372-.067.605.605 0 0 1-.253-.211.919.919 0 0 1-.143-.363 2.796 2.796 0 0 1-.042-.524V17.39l-1.722.253v10.855c-.008.285.038.568.135.836.08.217.214.412.388.565.173.149.378.256.6.313.245.063.497.095.75.093a4.2 4.2 0 0 0 .752-.068 3.35 3.35 0 0 0 .295-.067l.17-1.335-.204.034c-.067.011-.126.02-.177.026ZM22.656 29.072a.769.769 0 0 1-.659-.27 1.451 1.451 0 0 1-.185-.895l.033-3.477a4.059 4.059 0 0 0-.135-1.081c-.082-.31-.219-.6-.405-.86a2.285 2.285 0 0 0-.7-.626 3.571 3.571 0 0 0-1.022-.388 6.009 6.009 0 0 0-1.333-.135c-.356 0-.711.023-1.064.068a7.327 7.327 0 0 0-.988.194c-.3.081-.596.18-.886.295l-.203 1.435a9.643 9.643 0 0 1 1.537-.422 6.14 6.14 0 0 1 .7-.093 9.41 9.41 0 0 1 .684-.025c.345-.007.688.032 1.021.118.244.061.468.183.65.355.163.167.28.373.338.599.072.278.106.565.102.853l-.002.423-1.974.134a5.244 5.244 0 0 0-1.958.439 2.804 2.804 0 0 0-1.157.937 2.18 2.18 0 0 0-.38 1.24c-.003.416.099.825.296 1.19.206.376.517.684.895.887.46.24.975.356 1.494.338.486.01.97-.07 1.426-.237a3.292 3.292 0 0 0 1.064-.675c.117-.113.227-.23.332-.354.033.174.095.343.183.497.15.259.382.46.658.574.306.123.633.183.962.177.102 0 .2-.002.296-.008.094-.006.187-.02.278-.042a9.86 9.86 0 0 1 .245-.06 1.43 1.43 0 0 0 .194-.058l.186-1.132a1.48 1.48 0 0 1-.287.068c-.078.01-.157.016-.236.017Zm-2.811-.76a3.246 3.246 0 0 1-.591.372c-.209.101-.43.175-.659.22a3.735 3.735 0 0 1-.717.067 1.904 1.904 0 0 1-.802-.152c-.206-.09-.38-.24-.498-.43a1.262 1.262 0 0 1-.169-.668c-.016-.281.061-.56.22-.793.183-.214.433-.363.709-.422a5.133 5.133 0 0 1 1.317-.135h1.478l-.008 1.676c-.085.096-.18.185-.28.265ZM30.117 26.253a2.535 2.535 0 0 0-.59-.465 4.616 4.616 0 0 0-.71-.329c-.18-.056-.357-.115-.531-.177a9.456 9.456 0 0 0-.524-.169c-.175-.05-.343-.104-.506-.16a3.647 3.647 0 0 1-.448-.186 2.964 2.964 0 0 1-.396-.254 1.104 1.104 0 0 1-.287-.32.812.812 0 0 1-.11-.423.874.874 0 0 1 .118-.464.96.96 0 0 1 .355-.329c.177-.097.367-.165.566-.203.247-.047.499-.07.75-.067a5.497 5.497 0 0 1 .887.076c.175.028.348.065.523.11.175.044.352.095.532.151.167.052.33.114.49.186l.118-1.367a8.09 8.09 0 0 0-.633-.237 6.339 6.339 0 0 0-.633-.169 5.063 5.063 0 0 0-.633-.092 7.673 7.673 0 0 0-.617-.026 5.57 5.57 0 0 0-1.384.16 3.487 3.487 0 0 0-1.089.473c-.302.2-.549.473-.717.794a2.419 2.419 0 0 0-.254 1.14c-.005.284.04.567.135.835.08.225.2.434.355.616.15.172.323.323.515.448.2.13.411.24.633.329a13.454 13.454 0 0 0 .785.261l.38.118.363.119c.118.039.233.076.346.11.15.053.298.118.439.194.124.065.24.145.346.236a.873.873 0 0 1 .22.296.896.896 0 0 1 .075.37.84.84 0 0 1-.278.668 1.618 1.618 0 0 1-.726.346 4.312 4.312 0 0 1-.954.1c-.2 0-.4-.014-.6-.041a8.941 8.941 0 0 1-.691-.118c-.242-.05-.49-.113-.743-.186-.254-.073-.51-.155-.768-.245l.067 1.435c.292.102.56.183.802.245s.473.115.692.16c.212.044.426.073.642.085.208.012.419.017.633.017.47.003.94-.045 1.401-.143a3.608 3.608 0 0 0 1.148-.448c.32-.195.584-.468.768-.793.193-.357.29-.76.278-1.165a2.366 2.366 0 0 0-.143-.87 1.974 1.974 0 0 0-.397-.632ZM38.035 26.253a2.543 2.543 0 0 0-.591-.465 4.601 4.601 0 0 0-.71-.329c-.18-.056-.357-.115-.531-.177a9.487 9.487 0 0 0-.524-.169c-.174-.05-.343-.104-.506-.16a3.654 3.654 0 0 1-.447-.186 2.964 2.964 0 0 1-.397-.254 1.101 1.101 0 0 1-.287-.32.81.81 0 0 1-.11-.423.874.874 0 0 1 .118-.464.954.954 0 0 1 .355-.329 1.91 1.91 0 0 1 .566-.203c.247-.047.499-.07.75-.067a5.515 5.515 0 0 1 .887.076c.175.028.349.065.523.11.175.044.352.095.532.151.167.052.33.114.49.186l.118-1.367a8.104 8.104 0 0 0-.633-.237 6.294 6.294 0 0 0-.633-.169 5.063 5.063 0 0 0-.633-.092 7.675 7.675 0 0 0-.616-.026 5.566 5.566 0 0 0-1.385.16 3.483 3.483 0 0 0-1.089.473c-.302.2-.549.473-.717.794a2.41 2.41 0 0 0-.253 1.14c-.005.284.04.567.135.835.08.225.2.434.355.616.15.173.323.323.514.448.2.13.412.24.634.329a13.64 13.64 0 0 0 .785.261l.38.118.362.119c.118.039.234.076.346.11.151.053.298.118.44.194.123.065.24.144.346.236a.868.868 0 0 1 .295.667.839.839 0 0 1-.279.667 1.617 1.617 0 0 1-.726.346 4.3 4.3 0 0 1-.953.1 4.71 4.71 0 0 1-.6-.041 8.932 8.932 0 0 1-.692-.118c-.242-.05-.49-.113-.743-.186a15.128 15.128 0 0 1-.768-.245l.068 1.435c.292.102.56.183.802.245s.473.115.692.16c.211.044.426.073.641.085.208.012.42.017.633.017.471.003.94-.045 1.401-.143a3.607 3.607 0 0 0 1.148-.448c.32-.195.584-.468.769-.793.193-.357.289-.76.278-1.165a2.36 2.36 0 0 0-.144-.87 1.968 1.968 0 0 0-.396-.632ZM42.095 17.82a1.095 1.095 0 0 0-.582-.16 1.137 1.137 0 0 0-.591.16 1.235 1.235 0 0 0-.43.422 1.09 1.09 0 0 0-.161.582c-.002.208.054.413.16.591.104.177.252.323.43.422.181.102.385.154.592.152.204.003.405-.05.582-.152.174-.1.316-.246.414-.422.101-.18.153-.384.152-.59a1.14 1.14 0 0 0-.152-.583 1.193 1.193 0 0 0-.414-.422ZM40.618 30.136h1.722v-8.78l-1.722.254v8.526ZM50.308 26.253a2.535 2.535 0 0 0-.59-.465 4.62 4.62 0 0 0-.71-.329 14.91 14.91 0 0 1-.532-.177 9.409 9.409 0 0 0-.523-.169c-.175-.05-.344-.104-.507-.16a3.644 3.644 0 0 1-.447-.186 2.946 2.946 0 0 1-.397-.254 1.103 1.103 0 0 1-.287-.32.81.81 0 0 1-.11-.423.874.874 0 0 1 .119-.464.955.955 0 0 1 .354-.329 1.91 1.91 0 0 1 .566-.203c.247-.047.5-.07.751-.067a5.507 5.507 0 0 1 .887.076c.174.028.348.065.523.11.174.044.351.095.532.151.166.052.33.114.489.186l.118-1.367a8.104 8.104 0 0 0-.633-.237 6.294 6.294 0 0 0-.633-.169 5.063 5.063 0 0 0-.633-.092 7.668 7.668 0 0 0-.616-.026 5.566 5.566 0 0 0-1.385.16 3.483 3.483 0 0 0-1.088.473c-.303.2-.55.473-.718.794a2.41 2.41 0 0 0-.253 1.14c-.005.284.04.567.135.835.08.225.2.434.355.616.15.172.323.323.515.448.2.13.411.24.633.329a13.759 13.759 0 0 0 .785.261l.38.118c.123.04.244.079.362.119.118.04.234.076.347.11.15.053.297.118.439.194.123.065.24.145.346.236a.865.865 0 0 1 .295.667.842.842 0 0 1-.278.667c-.21.174-.46.293-.727.346a4.3 4.3 0 0 1-.953.1c-.2 0-.4-.014-.6-.041a8.938 8.938 0 0 1-.692-.118 10.26 10.26 0 0 1-.743-.186 15.227 15.227 0 0 1-.768-.245l.068 1.435a10 10 0 0 0 .802.245c.242.062.473.115.692.16.212.044.426.073.642.085.208.012.419.017.633.017.47.003.94-.045 1.4-.143a3.61 3.61 0 0 0 1.149-.448c.319-.195.583-.468.768-.793.193-.357.29-.76.278-1.165a2.362 2.362 0 0 0-.143-.87 1.97 1.97 0 0 0-.397-.632ZM58.092 30.136h2.229l-4.096-4.615 4.011-3.995h-2.11L55.237 24.7h-.623v-7.31l-1.722.253v12.492h1.722V26h.028l3.45 4.137Z"/></svg>
